X:0287
M:C
L:1/8
Q:1/4=96
K:A Minor
a|g2   e2  e2  dc |Bcde          (TdB) AG| g>agf            e2        g2|ageg  a3 c'|
  g2   e2  e2  dc |Bcde            B2  AG| c3  d            e2^fg       |e>dcB A3  :|
a|g>agf    edec   |dgcg            BA``BG| g>(aTgf)         e>d(eg)     |ageg  agac'|
  gc'ec'   g(eTdc)|d(e/d/) c(d/c/) BA``BG|(c/B/c/).d/ .c.A (d/c/d/e/) dB|e>dcB A3  :|

